; generated by SuperSlicer 2.7.62.0-beta2 on 2026-05-15 at 08:41:57 UTC

; 

; external perimeters extrusion width = 0.44mm
; perimeters extrusion width = 0.44mm
; infill extrusion width = 0.44mm
; solid infill extrusion width = 0.44mm
; top infill extrusion width = 0.44mm
; first layer extrusion width = 0.56mm


; object:{"name":"rocket_newtype_H19_24_S1_0740_target4168_stl id:0 copy 0","id":"0","object_id":0,"copy":0,"object_center":[100.000,98.770,0.000],"boundingbox_center":[100.000,100.000,9.620],"boundingbox_size":[22.827,41.375,19.240],"scale":[1.000,1.000,1.000],"outline":[[102.853,87.873],[111.414,83.593],[107.134,92.153],[107.134,107.847],[100.000,120.687],[92.866,107.847],[92.866,92.153],[88.586,83.593],[97.147,87.873],[98.573,79.313],[101.427,79.313]]}
; plater:{,"object_center":[100.000,96.273,0.000],"boundingbox_center":[100.000,100.000,9.620],"boundingbox_size":[22.827,41.375,19.240],"outline":[[88.586,83.593],[98.573,79.313],[101.427,79.313],[111.414,83.593],[107.134,107.847],[100.000,120.687],[92.866,107.847]]}

M107
;TYPE:Custom
M115 U3.1.0 ; tell printer latest fw version
M83  ; extruder relative mode
M204 S1500 T1500 ; ENDER3 firmware may only supports the old M204 format
G28 W ; home all
M104 S220 ; set extruder temp
M140 S70 ; set bed temp
M190 S70 ; wait for bed temp
M109 S220 ; wait for extruder temp
G1 X0.0 Y0.0 F1000.0 ; go outside print area
G92 E0.0
G1 X150.0 E20 ; intro line
G92 E0.0
G21 ; set units to millimeters
G90 ; use absolute coordinates
M82 ; use absolute distances for extrusion
G92 E0
; Filament gcode
;LAYER_CHANGE
;Z:0.2
;HEIGHT:0.2
;BEFORE_LAYER_CHANGE
;0.2


G1 E-.5 F2100
G1 Z.6 F10800
G92 E0
G1 Z.8
; printing object rocket_newtype_H19_24_S1_0740_target4168_stl id:0 copy 0
M204 S1000
G1 X102.2 Y89.157
G1 Z.2
G1 E.5 F2100
;TYPE:Perimeter
;WIDTH:0.56
G1 F1800;
G1 X109.077 Y85.715 E.83066
G1 X109.292 Y85.929 E.8437
G1 X106.278 Y91.951 E1.13322
G1 X106.278 Y107.625 E1.80714
G1 X100 Y118.925 E2.36294
G1 X93.722 Y107.625 E2.91875
G1 X93.722 Y91.951 E3.59267
G1 X90.708 Y85.929 E3.88219
G1 X90.923 Y85.715 E3.89523
G1 X97.8 Y89.157 E4.22589
G1 X99.298 Y80.168 E4.61768
G1 X100.702 Y80.168 E4.67804
G1 X102.19 Y89.098 E5.06725
G1 X102.601 Y88.368 F10800
;TYPE:External perimeter
G1 F1800;
G1 X108.998 Y85.167 E5.37478
G1 X109.851 Y84.687 E5.41688
G1 X110.734 Y84.246 E5.45932
G1 X110.761 Y84.272 E5.46094
G1 X110.319 Y85.155 E5.50338
G1 X109.84 Y86.009 E5.54548
G1 X106.804 Y92.075 E5.83715
G1 X106.804 Y107.761 E6.51158
G1 X100 Y120.008 E7.11392
G1 X93.196 Y107.761 E7.71627
G1 X93.196 Y92.075 E8.3907
G1 X90.16 Y86.009 E8.68237
G1 X89.681 Y85.155 E8.72447
G1 X89.239 Y84.272 E8.7669
G1 X89.266 Y84.246 E8.76853
G1 X90.149 Y84.687 E8.81097
G1 X91.002 Y85.167 E8.85307
G1 X97.399 Y88.368 E9.1606
G1 X98.853 Y79.643 E9.54093
G1 X101.147 Y79.643 E9.63957
G1 X101.18 Y79.842 E9.64828
G1 X102.592 Y88.309 E10.01732
;SEAM:102.601:88.368
;WIPE_START
M204 S1500
G1 X102.673 Y88.556 F10800
;WIPE_END
G92 E0
;WIPE_START
G1 F8640;
G1 X104.125 Y87.829 E-.37495
G1 X104.609 Y87.587 E-.5
G1 X105.578 Y87.102 F10800
;WIPE_END
G1 X102.629 Y89.22
M204 S1000
G1 X101.901 Y89.743
G1 E0 F2100
;TYPE:Solid infill
;WIDTH:0.544404
G1 F1800;
G1 X108.632 Y86.375 E.31457
G1 X105.887 Y91.859 E.57088
G1 X105.887 Y107.524 E1.22566
G1 X100 Y118.121 E1.73235
G1 X94.113 Y107.524 E2.23904
G1 X94.113 Y91.859 E2.89382
G1 X91.368 Y86.375 E3.15013
G1 X98.099 Y89.743 E3.4647
G1 X99.629 Y80.559 E3.85387
G1 X100.371 Y80.559 E3.88487
G1 X101.892 Y89.684 E4.27153
G1 X101.505 Y90.522 F10800
G1 F1800;
G1 X106.941 Y87.801 E4.52559
G1 X107.205 Y88.066 E4.54122
G1 X105.368 Y91.736 E4.71277
G1 X105.368 Y107.39 E5.36705
G1 X100 Y117.052 E5.82909
G1 X94.632 Y107.39 E6.29112
G1 X94.632 Y91.736 E6.94541
G1 X92.795 Y88.066 E7.11695
G1 X93.059 Y87.801 E7.13259
G1 X98.495 Y90.522 E7.38664
G1 X99.78 Y82.809 E7.71348
G1 X100.22 Y82.809 E7.73185
G1 X101.495 Y90.462 E8.05618
G92 E0
;WIPE_START
G1 F8640;
M204 S1500
G1 X101.505 Y90.522 E-.01405
G1 X102.903 Y89.822 E-.37506
G1 X103.387 Y89.58 E-.5
G1 X104.355 Y89.095 F10800
;WIPE_END
G1 Z.8
G1 X100.862 Y83.845
M204 S1000
G1 X100 Y82.549
G1 Z.2
G1 E0 F2100
;TYPE:Gap fill
;WIDTH:0.765596
G1 F1800;
G1 X100 Y82.098 E.02714
;WIDTH:0.738655
G1 X100 Y82.019 E.0317
;WIDTH:0.711714
G1 X100 Y81.941 E.03609
;WIDTH:0.684774
G1 X100 Y81.862 E.04029
;WIDTH:0.657833
G1 X100 Y81.783 E.04432
;WIDTH:0.630892
G1 X100 Y81.705 E.04818
;WIDTH:0.603951
G1 X100 Y81.626 E.05185
;WIDTH:0.57701
G1 X100 Y81.547 E.05535
;WIDTH:0.550069
G1 X100 Y81.469 E.05868
;WIDTH:0.523128
G1 X100 Y81.39 E.06183
;WIDTH:0.496187
G1 X100 Y81.311 E.0648
;WIDTH:0.469246
G1 X100 Y81.233 E.0676
;WIDTH:0.442305
G1 X100 Y81.154 E.07022
;WIDTH:0.415365
G1 X100 Y81.075 E.07266
;WIDTH:0.388424
G1 X100 Y80.908 E.0775
;WIDTH:0.335425
G1 X100 Y80.818 E.07968
G92 E0
;WIPE_START
G1 F8640;
M204 S1500
G1 X100 Y80.908 E-.02078
G1 X100 Y81.075 E-.05934
G1 X100 Y81.154 E-.07758
G1 X100 Y81.233 E-.09582
G1 X100 Y81.311 E-.11383
G1 X100 Y81.39 E-.13207
G1 X100 Y81.469 E-.15031
G1 X100 Y81.547 E-.16832
G1 X100 Y81.626 E-.18656
G1 X100 Y81.705 E-.2048
G1 X100 Y81.783 E-.22281
G1 X100 Y81.862 E-.24105
G1 X100 Y81.941 E-.25929
G1 X100 Y82.019 E-.2773
G1 X100 Y82.098 E-.29554
G1 X100 Y82.442 E-.37497
G1 X100 Y82.549 E-.39968
G1 X99.861 Y82.138 E-.5
G1 X99.513 Y81.112 F10800
;WIPE_END
G1 Z.8
G1 X99.727 Y85.004
M204 S1000
G1 X99.78 Y85.964
G1 Z.2
G1 E0 F2100
;TYPE:Solid infill
;WIDTH:0.544404
G1 F1800;
G1 X100.22 Y85.964 E.01837
G1 X101.109 Y91.3 E.24447
G1 X105.779 Y88.963 E.46276
G1 X106.044 Y89.227 E.47839
G1 X104.85 Y91.613 E.58992
G1 X104.85 Y107.255 E1.24371
G1 X100 Y115.984 E1.6611
G1 X95.15 Y107.255 E2.07848
G1 X95.15 Y91.613 E2.73227
G1 X93.956 Y89.227 E2.8438
G1 X94.221 Y88.963 E2.85943
G1 X98.891 Y91.3 E3.07772
G1 X99.77 Y86.023 E3.30132
G1 X100 Y85.705 F10800
;TYPE:Gap fill
;WIDTH:0.765596
G1 F1800;
G1 X100 Y85.253 E3.32853
;WIDTH:0.739062
G1 X100 Y85.173 E3.33316
;WIDTH:0.712528
G1 X100 Y85.093 E3.33761
;WIDTH:0.685995
G1 X100 Y85.013 E3.34188
;WIDTH:0.659461
G1 X100 Y84.933 E3.34598
;WIDTH:0.632927
G1 X100 Y84.854 E3.34991
;WIDTH:0.606393
G1 X100 Y84.774 E3.35366
;WIDTH:0.579859
G1 X100 Y84.694 E3.35723
;WIDTH:0.553325
G1 X100 Y84.614 E3.36062
;WIDTH:0.526791
G1 X100 Y84.534 E3.36384
;WIDTH:0.500257
G1 X100 Y84.455 E3.36689
;WIDTH:0.473723
G1 X100 Y84.375 E3.36975
;WIDTH:0.447189
G1 X100 Y84.295 E3.37244
;WIDTH:0.420655
G1 X100 Y84.215 E3.37496
;WIDTH:0.394121
G1 X100 Y84.135 E3.3773
;WIDTH:0.367587
G1 X100 Y84.055 E3.37946
;WIDTH:0.341053
G1 X100 Y83.976 E3.38145
;WIDTH:0.31452
G1 X100 Y83.896 E3.38326
;WIDTH:0.287986
G1 X100 Y83.816 E3.38489
;WIDTH:0.261452
G1 X100 Y83.736 E3.38635
;WIDTH:0.234918
G1 X100 Y83.656 E3.38763
;WIDTH:0.208384
G1 X100 Y83.577 E3.38874
;WIDTH:0.18185
G1 X100 Y83.497 E3.38967
;WIDTH:0.155316
G1 X100 Y83.417 E3.39042
;WIDTH:0.128782
G1 X100 Y83.337 E3.391
;WIDTH:0.102247
G1 X100 Y83.226 E3.39156
G92 E0
;WIPE_START
G1 F8640;
M204 S1500
G1 X100 Y83.337 E-.02563
G1 X100 Y83.417 E-.0441
G1 X100 Y83.497 E-.06257
G1 X100 Y83.577 E-.08104
G1 X100 Y83.656 E-.09928
G1 X100 Y83.736 E-.11775
G1 X100 Y83.816 E-.13622
G1 X100 Y83.896 E-.15469
G1 X100 Y83.976 E-.17316
G1 X100 Y84.055 E-.1914
G1 X100 Y84.135 E-.20987
G1 X100 Y84.215 E-.22834
G1 X100 Y84.295 E-.24681
G1 X100 Y84.375 E-.26528
G1 X100 Y84.455 E-.28375
G1 X100 Y84.534 E-.30199
G1 X100 Y84.614 E-.32046
G1 X100 Y84.694 E-.33893
G1 X100 Y84.774 E-.3574
G1 X100 Y84.854 E-.37587
G1 X100 Y84.933 E-.39411
G1 X100 Y85.013 E-.41258
G1 X100 Y85.093 E-.43105
G1 X100 Y85.173 E-.44952
G1 X100 Y85.253 E-.46799
G1 X100 Y85.392 E-.5
G1 X100 Y85.705 F10800
G1 X99.539 Y86.32
;WIPE_END
G1 Z.8
G1 X99.732 Y88.566
M204 S1000
G1 X99.78 Y89.12
G1 Z.2
G1 E0 F2100
;TYPE:Solid infill
;WIDTH:0.544404
G1 F1800;
G1 X100.22 Y89.12 E.01837
G1 X100.713 Y92.079 E.14373
G1 X104.618 Y90.124 E.32625
G1 X104.882 Y90.389 E.34189
G1 X104.331 Y91.491 E.39341
G1 X104.331 Y107.121 E1.0467
G1 X100 Y114.916 E1.41943
G1 X95.669 Y107.121 E1.79216
G1 X95.669 Y91.491 E2.44545
G1 X95.118 Y90.389 E2.49697
G1 X95.382 Y90.124 E2.5126
G1 X99.287 Y92.079 E2.69512
G1 X99.77 Y89.179 E2.81798
G1 X100 Y88.861 F10800
;TYPE:Gap fill
;WIDTH:0.765596
G1 F1800;
G1 X100 Y88.408 E2.84519
;WIDTH:0.739062
G1 X100 Y88.329 E2.84982
;WIDTH:0.712528
G1 X100 Y88.249 E2.85428
;WIDTH:0.685995
G1 X100 Y88.169 E2.85855
;WIDTH:0.659461
G1 X100 Y88.089 E2.86265
;WIDTH:0.632927
G1 X100 Y88.009 E2.86658
;WIDTH:0.606393
G1 X100 Y87.93 E2.87032
;WIDTH:0.579859
G1 X100 Y87.85 E2.87389
;WIDTH:0.553325
G1 X100 Y87.77 E2.87729
;WIDTH:0.526791
G1 X100 Y87.69 E2.88051
;WIDTH:0.500257
G1 X100 Y87.61 E2.88355
;WIDTH:0.473723
G1 X100 Y87.53 E2.88642
;WIDTH:0.447189
G1 X100 Y87.451 E2.88911
;WIDTH:0.420655
G1 X100 Y87.371 E2.89163
;WIDTH:0.394121
G1 X100 Y87.291 E2.89396
;WIDTH:0.367587
G1 X100 Y87.211 E2.89613
;WIDTH:0.341053
G1 X100 Y87.131 E2.89811
;WIDTH:0.31452
G1 X100 Y87.052 E2.89992
;WIDTH:0.287986
G1 X100 Y86.972 E2.90156
;WIDTH:0.261452
G1 X100 Y86.892 E2.90302
;WIDTH:0.234918
G1 X100 Y86.812 E2.9043
;WIDTH:0.208384
G1 X100 Y86.732 E2.90541
;WIDTH:0.18185
G1 X100 Y86.652 E2.90634
;WIDTH:0.155316
G1 X100 Y86.573 E2.90709
;WIDTH:0.128782
G1 X100 Y86.493 E2.90767
;WIDTH:0.102247
G1 X100 Y86.382 E2.90823
G92 E0
;WIPE_START
G1 F8640;
M204 S1500
G1 X100 Y86.493 E-.02563
G1 X100 Y86.573 E-.0441
G1 X100 Y86.652 E-.06234
G1 X100 Y86.732 E-.08081
G1 X100 Y86.812 E-.09928
G1 X100 Y86.892 E-.11775
G1 X100 Y86.972 E-.13622
G1 X100 Y87.052 E-.15469
G1 X100 Y87.131 E-.17293
G1 X100 Y87.211 E-.1914
G1 X100 Y87.291 E-.20987
G1 X100 Y87.371 E-.22834
G1 X100 Y87.451 E-.24681
G1 X100 Y87.53 E-.26505
G1 X100 Y87.61 E-.28352
G1 X100 Y87.69 E-.30199
G1 X100 Y87.77 E-.32046
G1 X100 Y87.85 E-.33893
G1 X100 Y87.93 E-.3574
G1 X100 Y88.009 E-.37564
G1 X100 Y88.089 E-.39411
G1 X100 Y88.169 E-.41258
G1 X100 Y88.249 E-.43105
G1 X100 Y88.329 E-.44952
G1 X100 Y88.408 E-.46776
G1 X100 Y88.548 E-.5
G1 X100 Y88.861 F10800
G1 X99.231 Y88.857
;WIPE_END
G1 Z.8
G1 X99.672 Y91.599
M204 S1000
G1 X99.78 Y92.276
G1 Z.2
G1 E0 F2100
;TYPE:Solid infill
;WIDTH:0.544404
G1 F1800;
G1 X100.22 Y92.276 E.01837
G1 X100.317 Y92.857 E.043
G1 X103.812 Y91.108 E.20637
G1 X103.812 Y106.986 E.87006
G1 X100 Y113.848 E1.19814
G1 X96.188 Y106.986 E1.52622
G1 X96.188 Y91.108 E2.18991
G1 X99.683 Y92.857 E2.35328
G1 X99.77 Y92.335 E2.3754
G1 X100 Y92.016 F10800
;TYPE:Gap fill
;WIDTH:0.765598
G1 F1800;
G1 X100 Y91.564 E2.40261
;WIDTH:0.739064
G1 X100 Y91.484 E2.40724
;WIDTH:0.71253
G1 X100 Y91.405 E2.41169
;WIDTH:0.685996
G1 X100 Y91.325 E2.41597
;WIDTH:0.659462
G1 X100 Y91.245 E2.42007
;WIDTH:0.632928
G1 X100 Y91.165 E2.42399
;WIDTH:0.606394
G1 X100 Y91.085 E2.42774
;WIDTH:0.57986
G1 X100 Y91.006 E2.43131
;WIDTH:0.553326
G1 X100 Y90.926 E2.43471
;WIDTH:0.526792
G1 X100 Y90.846 E2.43793
;WIDTH:0.500258
G1 X100 Y90.766 E2.44097
;WIDTH:0.473724
G1 X100 Y90.686 E2.44384
;WIDTH:0.44719
G1 X100 Y90.606 E2.44653
;WIDTH:0.420656
G1 X100 Y90.527 E2.44904
;WIDTH:0.394122
G1 X100 Y90.447 E2.45138
;WIDTH:0.367588
G1 X100 Y90.367 E2.45354
;WIDTH:0.341054
G1 X100 Y90.287 E2.45553
;WIDTH:0.31452
G1 X100 Y90.207 E2.45734
;WIDTH:0.287986
G1 X100 Y90.128 E2.45898
;WIDTH:0.261452
G1 X100 Y90.048 E2.46043
;WIDTH:0.234918
G1 X100 Y89.968 E2.46172
;WIDTH:0.208384
G1 X100 Y89.888 E2.46282
;WIDTH:0.18185
G1 X100 Y89.808 E2.46375
;WIDTH:0.155316
G1 X100 Y89.728 E2.46451
;WIDTH:0.128782
G1 X100 Y89.649 E2.46508
;WIDTH:0.102247
G1 X100 Y89.538 E2.46564
G92 E0
;WIPE_START
G1 F8640;
M204 S1500
G1 X100 Y89.649 E-.02563
G1 X100 Y89.728 E-.04387
G1 X100 Y89.808 E-.06234
G1 X100 Y89.888 E-.08081
G1 X100 Y89.968 E-.09928
G1 X100 Y90.048 E-.11775
G1 X100 Y90.128 E-.13622
G1 X100 Y90.207 E-.15446
G1 X100 Y90.287 E-.17293
G1 X100 Y90.367 E-.1914
G1 X100 Y90.447 E-.20987
G1 X100 Y90.527 E-.22834
G1 X100 Y90.606 E-.24658
G1 X100 Y90.686 E-.26505
G1 X100 Y90.766 E-.28352
G1 X100 Y90.846 E-.30199
G1 X100 Y90.926 E-.32046
G1 X100 Y91.006 E-.33893
G1 X100 Y91.085 E-.35717
G1 X100 Y91.165 E-.37564
G1 X100 Y91.245 E-.39411
G1 X100 Y91.325 E-.41258
G1 X100 Y91.405 E-.43105
G1 X100 Y91.484 E-.44929
G1 X100 Y91.564 E-.46776
G1 X100 Y91.704 E-.5
G1 X100 Y92.016 F10800
G1 X99.54 Y91.398
;WIPE_END
G1 Z.8
G1 X99.833 Y93.123
M204 S1000
G1 X99.906 Y93.549
G1 Z.2
G1 E0 F2100
;TYPE:Solid infill
;WIDTH:0.544404
G1 F1800;
G1 X99.92 Y93.635 E.00368
G1 X100 Y93.596 E.0074
G1 X100.08 Y93.635 E.01113
G1 X100.094 Y93.549 E.01481
G1 X103.293 Y91.947 E.16433
G1 X103.293 Y106.852 E.7873
G1 X100 Y112.779 E1.07073
G1 X96.707 Y106.852 E1.35416
G1 X96.707 Y91.947 E1.97712
G1 X99.852 Y93.522 E2.12414
G1 X99.438 Y93.894 F10800
G1 F1800;
G1 X99.524 Y94.414 E2.14616
G1 X100 Y94.176 E2.1684
G1 X100.476 Y94.414 E2.19064
G1 X100.562 Y93.894 E2.21266
G1 X102.774 Y92.787 E2.31604
G1 X102.774 Y106.717 E2.89829
G1 X100 Y111.711 E3.13706
G1 X97.226 Y106.717 E3.37584
G1 X97.226 Y92.787 E3.95809
G1 X99.384 Y93.867 E4.05896
G1 X98.969 Y94.24 F10800
G1 F1800;
G1 X99.128 Y95.192 E4.09932
G1 X100 Y94.756 E4.14008
G1 X100.872 Y95.192 E4.18084
G1 X101.031 Y94.24 E4.22119
G1 X102.255 Y93.627 E4.27843
G1 X102.255 Y106.583 E4.81996
G1 X100 Y110.643 E5.01408
G1 X97.745 Y106.583 E5.20821
G1 X97.745 Y93.627 E5.74973
G1 X98.916 Y94.213 E5.80447
G92 E0
;WIPE_START
G1 F8640;
M204 S1500
G1 X98.969 Y94.24 E-.01373
G1 X99.128 Y95.192 E-.23659
G1 X99.664 Y94.924 E-.37496
G1 X100 Y94.756 E-.4617
G1 X100.148 Y94.83 E-.5
G1 X100.872 Y95.192 F10800
G1 X100.917 Y94.922
;WIPE_END
M204 S1000
G1 X100 Y95.336
G1 E0 F2100
G1 F1800;
G1 X101.379 Y96.026 E.06445
G1 X101.737 Y96.056 E.07946
G1 X101.737 Y106.448 E.51385
G1 X100 Y109.574 E.66332
G1 X98.263 Y106.448 E.81279
G1 X98.263 Y96.056 E1.24718
G1 X98.621 Y96.026 E1.26217
G1 X99.946 Y95.363 E1.32413
G92 E0
;WIPE_START
G1 F8640;
M204 S1500
G1 X100 Y95.336 E-.01394
G1 X101.379 Y96.026 E-.36999
G1 X101.401 Y96.028 E-.37509
G1 X101.737 Y96.056 E-.45294
G1 X101.737 Y96.26 E-.5
G1 X101.737 Y97.343 F10800
;WIPE_END
G1 X99.108 Y96.089
M204 S1000
G1 X98.459 Y95.779
G1 E0 F2100
;TYPE:Gap fill
;WIDTH:0.775377
G1 F1800;
G1 X98.451 Y95.525 E.01555
;WIDTH:0.749978
G1 X98.445 Y95.347 E.026
;WIDTH:0.822904
G1 X98.443 Y95.334 E.02688
;WIDTH:0.89583
G1 X98.432 Y95.201 E.03636
;WIDTH:0.869084
G1 X98.421 Y95.068 E.04554
;WIDTH:0.842337
G1 X98.41 Y94.935 E.05442
;WIDTH:0.81559
G1 X98.399 Y94.802 E.06301
;WIDTH:0.788843
G1 X98.388 Y94.669 E.07129
G1 X98.459 Y94.275 E.09617
G92 E0
;WIPE_START
G1 F8640;
M204 S1500
G1 X98.388 Y94.669 E-.09244
G1 X98.399 Y94.802 E-.12325
G1 X98.41 Y94.935 E-.15406
G1 X98.421 Y95.068 E-.18487
G1 X98.432 Y95.201 E-.21568
G1 X98.443 Y95.334 E-.24649
G1 X98.445 Y95.347 E-.24953
G1 X98.451 Y95.525 E-.29065
G1 X98.459 Y95.779 E-.34933
G1 X98.371 Y95.712 E-.37487
G1 X97.941 Y95.383 E-.5
G1 X97.081 Y94.725 F10800
;WIPE_END
G1 Z.8
G1 X100.658 Y94.364
M204 S1000
G1 X101.541 Y94.275
G1 Z.2
G1 E0 F2100
;WIDTH:0.788863
G1 F1800;
G1 X101.612 Y94.669 E.02488
G1 X101.601 Y94.802 E.03317
;WIDTH:0.815609
G1 X101.59 Y94.935 E.04175
;WIDTH:0.842355
G1 X101.579 Y95.068 E.05063
;WIDTH:0.869101
G1 X101.568 Y95.201 E.05981
;WIDTH:0.895847
G1 X101.557 Y95.334 E.06929
;WIDTH:0.822892
G1 X101.555 Y95.347 E.07015
;WIDTH:0.749938
G1 X101.549 Y95.524 E.08061
;WIDTH:0.775313
G1 X101.541 Y95.779 E.09616
G1 X101.218 Y96.526 F10800
;TYPE:Solid infill
;WIDTH:0.544404
G1 F1800;
G1 X101.218 Y106.314 E.50529
G1 X100 Y108.506 E.61011
G1 X98.782 Y106.314 E.71493
G1 X98.782 Y96.526 E1.12406
G1 X100 Y95.916 E1.18098
G1 X101.164 Y96.499 E1.2354
G1 X100.699 Y96.846 F10800
G1 F1800;
G1 X100.699 Y106.18 E1.62551
G1 X100 Y107.438 E1.68568
G1 X99.301 Y106.18 E1.74585
G1 X99.301 Y96.846 E2.13596
G1 X100 Y96.496 E2.16864
G1 X100.645 Y96.819 E2.1988
G1 X99.861 Y96.856 F10800
;TYPE:Gap fill
;WIDTH:0.51616
G1 F1800;
G1 X99.871 Y96.884 E2.19997
;WIDTH:0.543333
G1 X99.88 Y96.912 E2.20121
;WIDTH:0.570506
G1 X99.889 Y96.94 E2.20251
;WIDTH:0.597679
G1 X99.898 Y96.968 E2.20388
;WIDTH:0.624852
G1 X99.908 Y96.997 E2.20532
;WIDTH:0.652025
G1 X99.917 Y97.025 E2.20682
;WIDTH:0.679198
G1 X99.926 Y97.053 E2.20839
;WIDTH:0.70637
